<?xml version="1.0" encoding="UTF-8"?>
<map version="1.10" tiledversion="1.11.2" orientation="orthogonal" renderorder="right-down" width="40" height="40" tilewidth="16" tileheight="16" infinite="0" nextlayerid="16" nextobjectid="254">
 <tileset firstgid="1" source="../Tilesets/Atlas_Buildings.tsx"/>
 <tileset firstgid="443" source="../Tilesets/Objects_Buildings.tsx"/>
 <tileset firstgid="449" source="../Tilesets/Objects_Props.tsx"/>
 <tileset firstgid="468" source="../Tilesets/Objects_Rocks.tsx"/>
 <tileset firstgid="473" source="../Tilesets/Objects_Trees.tsx"/>
 <tileset firstgid="484" source="../Tilesets/Atlas_Props.tsx"/>
 <tileset firstgid="664" source="../Tilesets/Atlas_Rocks.tsx"/>
 <tileset firstgid="686" source="../Tilesets/Tileset_Ground.tsx"/>
 <tileset firstgid="854" source="../Tilesets/Tileset_RockSlope.tsx"/>
 <tileset firstgid="4950" source="../Tilesets/Tileset_RockSlope_Simple.tsx"/>
 <tileset firstgid="5004" source="../Tilesets/Tileset_Water.tsx"/>
 <tileset firstgid="5316" source="../Tilesets/Tilesets_Road.tsx"/>
 <tileset firstgid="5400" source="../Tilesets/Atlas_Trees_Bushes.tsx"/>
 <tileset firstgid="5544" source="../Tilesets/Animation_Flowers_Red.tsx"/>
 <tileset firstgid="5640" source="../Tilesets/Animation_Flowers_White.tsx"/>
 <tileset firstgid="5736" source="../Tilesets/Animation_Campfire.tsx"/>
 <layer id="13" name="Ground" width="40" height="40">
  <data encoding="csv">
719,781,781,693,753,700,785,706,783,783,786,700,787,795,700,700,752,694,695,781,781,693,753,706,786,745,731,781,729,756,706,706,799,794,707,781,781,781,781,781,
731,781,693,753,700,796,706,786,706,700,798,706,700,700,795,706,795,782,752,694,694,753,798,700,785,752,694,695,781,717,741,706,700,700,752,694,694,695,781,781,
695,693,753,796,784,740,757,718,741,782,784,706,795,706,700,706,799,799,784,795,795,706,706,784,783,796,700,752,694,694,753,785,782,700,798,706,785,752,694,694,
752,753,706,700,740,719,716,781,705,797,706,795,787,706,700,700,782,706,700,787,700,796,786,794,782,782,784,797,784,706,706,787,706,794,706,794,785,706,795,700,
782,740,718,718,733,781,692,693,753,700,700,798,700,796,787,740,718,741,787,700,784,700,700,785,795,706,706,786,782,700,700,700,785,786,740,741,795,783,740,741,
798,707,781,729,764,694,744,753,700,706,786,797,700,782,740,719,781,708,741,700,799,785,700,700,700,740,718,757,741,786,794,786,798,740,719,717,718,718,733,705,
718,719,781,729,732,718,718,741,700,782,794,706,786,794,752,695,781,704,705,784,795,798,797,700,795,707,781,716,717,741,706,783,797,752,694,694,695,781,720,753,
781,781,781,781,781,693,694,753,700,706,706,783,795,794,783,752,694,744,753,706,798,700,796,782,782,707,692,781,781,705,706,700,799,799,795,706,752,694,753,786,
694,695,781,781,693,753,786,783,706,787,796,796,700,782,794,798,783,706,740,757,757,741,706,798,706,752,744,694,694,753,799,706,794,783,706,798,783,700,706,785,
796,752,694,694,753,784,785,706,786,795,794,798,784,799,797,706,782,700,707,716,716,717,741,706,700,700,795,740,718,741,785,786,799,798,784,782,796,740,757,718,
786,700,796,799,795,784,700,782,784,706,787,785,784,783,796,798,797,700,752,694,694,694,753,700,700,795,783,707,781,705,798,700,706,782,798,785,740,719,716,729,
706,783,706,706,706,784,706,794,706,706,796,798,706,799,706,782,797,783,787,794,783,783,784,794,787,787,700,752,694,753,785,700,783,706,785,786,752,695,781,781,
700,798,700,785,794,706,706,700,700,797,783,786,706,785,797,784,787,797,785,706,786,706,700,787,787,700,700,706,784,785,706,783,786,700,784,782,786,752,695,781,
718,718,741,785,794,706,782,796,782,783,706,799,794,787,794,797,787,782,787,794,797,700,786,706,786,700,784,799,706,785,700,787,706,797,706,787,700,700,752,694,
731,781,717,757,741,706,787,786,796,798,797,797,784,700,787,782,785,794,784,786,700,700,796,706,787,786,797,794,706,798,700,784,795,706,706,700,700,706,700,706,
731,781,781,716,705,794,785,706,787,794,785,785,787,784,700,784,787,786,787,785,794,700,798,740,757,757,718,741,700,706,706,700,700,700,794,700,700,706,700,782,
781,781,693,694,753,798,799,797,782,794,798,706,700,794,700,787,787,785,706,786,799,786,740,719,716,754,743,717,741,782,785,799,785,783,794,796,784,706,786,784,
731,781,705,700,700,782,700,700,794,784,740,718,757,741,700,796,706,796,740,718,741,795,752,695,781,781,716,781,705,700,795,783,784,706,785,783,795,785,786,787,
731,781,717,718,718,741,700,700,785,700,707,781,716,705,785,782,700,740,719,781,717,741,798,752,694,695,781,693,753,786,706,700,706,782,700,797,700,794,796,795,
743,781,781,781,729,756,700,782,794,706,752,695,781,705,706,700,700,752,695,781,781,717,741,700,706,752,694,753,783,706,798,798,799,796,795,785,783,796,706,794,
716,781,693,694,694,753,797,700,700,706,798,752,694,753,700,786,799,700,752,694,695,692,705,782,700,706,787,797,796,794,798,740,757,741,799,787,799,783,799,706,
781,781,705,799,700,785,786,706,783,700,782,706,796,706,795,786,784,787,786,700,745,764,753,783,706,700,785,706,785,700,740,719,716,705,706,700,797,799,782,706,
781,781,717,741,786,797,706,797,700,706,794,700,700,700,795,706,787,786,740,718,719,717,718,741,799,706,783,798,706,797,707,781,693,753,787,787,795,797,796,783,
695,692,781,717,741,784,785,784,786,700,783,700,783,786,782,706,783,700,707,781,781,781,693,753,783,700,786,782,782,796,752,694,753,784,706,784,700,798,797,706,
752,744,694,694,753,795,700,706,785,796,700,700,783,700,795,783,740,718,719,781,693,694,753,700,784,799,785,784,794,784,706,786,795,797,782,796,740,718,718,757,
740,718,741,796,700,740,718,718,741,706,799,700,794,797,799,785,752,695,693,694,753,795,706,784,795,700,787,700,787,782,706,706,700,706,706,784,707,781,781,716,
707,781,705,795,700,707,781,781,717,718,741,783,706,797,706,787,785,752,753,700,799,786,796,797,706,787,706,700,795,700,797,700,785,799,787,794,752,695,781,781,
752,694,753,786,706,752,694,694,694,694,753,700,798,706,700,797,700,795,796,706,783,706,700,797,700,700,700,795,700,797,706,700,795,706,797,706,706,752,695,781,
700,798,700,782,740,741,700,799,797,787,700,706,797,706,700,786,700,785,784,799,782,706,700,783,785,700,700,706,799,700,799,700,782,700,787,797,700,784,752,695,
784,783,700,740,719,705,700,740,718,718,741,700,706,798,798,795,706,700,797,797,700,700,782,786,700,700,740,718,741,706,700,700,783,799,700,796,706,700,784,752,
794,700,740,719,693,753,786,752,694,694,753,796,740,718,741,797,706,700,785,797,795,797,700,786,700,784,707,781,717,718,741,799,786,794,700,706,740,718,718,741,
718,718,719,693,753,700,798,782,784,794,799,796,752,695,717,741,797,796,799,700,706,785,700,784,700,706,752,695,781,693,753,783,700,700,786,700,752,695,781,717,
781,781,693,753,740,718,718,718,718,718,718,718,741,752,695,717,718,741,706,740,718,718,741,706,706,797,782,752,694,753,796,706,700,700,798,706,785,752,694,694,
694,694,753,740,719,781,693,694,694,695,781,729,756,700,752,695,781,717,718,719,781,693,753,783,787,794,706,797,706,783,794,786,798,787,797,700,784,700,706,785,
784,798,740,719,781,781,705,700,706,752,694,695,717,718,741,707,781,781,781,781,693,753,784,795,706,796,783,786,797,706,798,700,798,798,784,785,706,700,740,718,
782,700,707,781,781,729,756,784,795,700,783,707,781,693,753,752,694,694,694,694,753,787,740,718,718,718,741,706,700,700,794,798,700,796,706,782,706,794,707,781,
706,700,752,694,695,781,705,784,706,700,785,752,694,753,787,700,706,798,797,783,797,740,719,781,693,694,753,700,795,706,784,798,785,798,783,706,784,740,719,781,
784,785,797,787,752,694,753,700,700,706,795,786,786,700,795,700,706,706,796,706,740,719,693,694,753,706,796,794,797,740,718,741,785,783,700,797,782,707,781,781,
794,783,706,783,782,783,782,706,706,787,706,700,785,700,783,706,795,794,700,783,752,694,753,797,700,700,700,782,706,752,695,717,718,741,706,797,794,707,781,781,
786,787,706,787,796,794,782,797,787,787,783,706,798,799,706,784,794,706,700,706,798,783,795,782,784,700,787,700,787,786,707,781,781,717,741,799,782,745,731,781
</data>
 </layer>
 <layer id="14" name="Flowers" width="40" height="40">
  <data encoding="csv">
0,0,0,0,0,0,0,0,0,0,0,0,0,0,0,0,0,0,0,0,0,0,0,0,0,0,0,0,0,0,0,0,0,0,0,0,0,0,0,0,
0,0,0,0,5549,0,0,0,0,0,0,0,0,0,0,0,0,0,0,0,0,0,0,0,0,0,0,0,0,0,0,0,0,0,0,0,0,0,0,0,
0,0,0,0,0,0,0,0,0,0,0,0,0,0,0,0,0,0,0,0,0,0,0,0,0,0,0,0,0,0,0,0,0,0,0,0,0,0,0,0,
0,0,0,0,0,0,0,0,0,0,0,0,0,0,0,0,0,0,0,0,0,0,0,0,0,0,0,0,0,0,5549,0,0,0,0,0,0,0,0,0,
0,0,0,0,0,0,0,0,0,5544,5545,0,0,0,0,0,0,0,0,0,0,0,0,0,0,0,0,0,0,0,0,0,0,0,0,0,0,0,0,0,
0,0,0,0,0,0,0,0,0,5592,5593,0,5645,0,0,0,0,0,0,0,0,0,0,0,0,0,0,0,0,0,0,0,0,0,0,0,0,0,0,0,
0,0,0,0,0,0,0,0,0,0,0,0,0,0,0,0,0,0,0,0,0,0,0,0,0,0,0,0,0,0,0,0,0,0,0,0,0,0,0,0,
0,0,0,0,0,0,0,0,0,0,0,0,0,0,0,0,0,0,0,0,0,0,0,0,0,0,0,0,0,0,0,0,0,0,0,0,0,0,0,0,
5643,0,0,0,0,0,0,0,0,0,0,0,0,0,0,0,0,0,0,0,0,0,0,0,0,0,0,0,0,0,0,0,0,0,0,0,0,0,0,0,
5691,0,0,0,0,0,0,0,0,0,0,0,0,0,0,0,0,0,0,0,0,0,0,0,0,0,0,0,0,0,0,0,0,0,0,0,0,0,0,0,
0,0,0,0,0,0,0,0,0,0,0,0,0,0,0,0,0,0,0,0,0,0,0,0,0,5544,5545,0,0,0,0,0,0,0,0,0,0,0,0,0,
0,0,0,0,0,0,0,0,0,0,0,0,0,0,5549,0,0,0,0,0,0,0,0,0,0,5592,5593,0,0,0,0,5643,0,0,0,0,0,0,0,0,
0,0,0,5547,0,0,0,0,0,0,0,0,0,0,0,0,0,0,0,0,0,0,0,0,0,0,0,0,0,0,0,5691,0,0,0,0,0,0,0,0,
0,0,0,5595,0,0,0,0,0,0,0,0,0,0,0,0,0,0,0,0,0,0,0,0,0,0,0,0,0,0,0,0,0,0,0,0,0,0,0,0,
0,0,0,0,0,0,0,0,0,0,0,0,0,0,0,0,0,0,0,0,0,5640,5641,0,0,0,0,0,0,0,0,0,0,0,0,0,0,0,0,0,
0,0,0,0,0,0,0,0,0,0,0,0,0,5640,5641,0,0,0,0,0,0,5688,5689,0,0,0,0,0,0,0,0,0,0,0,0,0,0,0,0,0,
0,0,0,0,0,0,0,0,0,0,0,0,0,5688,5689,0,0,0,0,0,0,0,0,0,0,0,0,0,0,0,0,0,0,0,0,0,0,0,0,0,
0,0,0,0,0,0,0,0,0,0,0,0,0,0,0,0,0,0,0,0,0,0,0,0,0,0,0,0,0,0,0,0,0,0,0,0,0,0,0,0,
0,0,0,0,0,0,0,0,0,0,0,0,0,0,0,0,0,0,0,0,0,0,0,0,0,0,0,0,0,5544,5545,0,0,0,0,0,0,0,0,0,
0,0,0,0,0,0,0,0,0,0,0,0,0,0,0,0,0,0,0,0,0,0,0,0,0,0,0,0,0,5592,5593,0,0,0,0,0,0,0,0,0,
0,0,0,0,0,0,0,0,0,0,0,0,0,0,0,0,0,0,0,0,0,0,0,0,0,0,0,0,0,0,0,0,0,0,0,0,0,0,0,0,
0,0,0,5645,0,0,0,0,0,0,0,0,0,0,0,0,0,0,0,0,0,0,0,0,0,0,0,0,0,0,0,0,0,0,0,0,0,0,0,0,
0,0,0,0,0,0,0,0,0,0,0,0,0,0,0,0,0,0,0,0,0,0,0,0,0,0,0,0,0,0,0,0,0,0,0,0,0,0,5549,0,
0,0,0,0,0,0,0,0,0,0,0,0,0,0,0,0,0,0,0,0,0,0,0,0,0,0,0,0,0,0,0,0,0,0,0,0,0,0,0,0,
0,0,0,0,0,0,5549,0,0,0,0,0,0,0,0,5547,0,0,0,0,0,0,0,0,0,0,0,0,0,0,0,0,0,0,0,0,0,0,0,0,
0,0,0,0,0,0,0,0,0,0,0,0,0,0,0,5595,0,0,0,0,0,0,0,0,0,0,0,0,0,0,0,5549,0,0,0,0,0,0,0,0,
0,0,0,5544,5545,0,0,0,0,0,0,0,0,0,0,0,0,0,0,0,0,0,0,0,0,0,0,0,0,0,0,0,0,0,0,0,0,0,0,0,
0,0,0,5592,5593,0,0,0,0,0,0,0,0,0,0,0,0,0,0,0,0,0,0,0,0,0,0,0,0,0,0,0,0,0,0,0,0,0,0,0,
0,5645,0,0,0,0,0,0,0,0,0,0,0,0,0,0,0,0,0,0,0,0,0,0,0,0,0,0,0,0,0,0,0,0,0,0,0,0,0,0,
0,0,0,0,0,0,0,0,0,0,0,0,0,0,0,0,0,0,0,0,5645,0,0,0,0,0,0,0,0,0,0,0,0,0,0,0,0,0,0,0,
0,0,0,0,0,0,0,0,0,0,0,0,0,0,0,0,0,0,5643,0,0,0,0,0,0,0,0,0,0,0,0,0,0,0,0,0,0,0,0,0,
0,0,0,0,0,0,0,0,0,0,0,0,0,0,0,0,0,0,5691,0,0,0,0,0,0,5549,0,0,0,0,0,0,0,0,0,0,0,0,0,0,
0,0,0,0,0,0,0,0,0,0,0,0,0,0,0,0,0,0,0,0,0,0,0,0,0,0,0,0,0,0,0,0,0,0,0,5640,5641,0,0,0,
0,0,0,0,0,0,0,0,0,0,0,0,0,0,0,0,0,0,0,0,0,0,0,0,0,0,0,0,0,0,0,0,0,0,0,5688,5689,0,0,0,
0,0,0,0,0,0,0,0,0,0,0,0,0,0,0,0,0,0,0,0,0,0,0,0,0,0,0,0,0,0,0,0,0,0,0,0,0,0,0,0,
0,0,0,0,0,0,0,0,0,0,0,0,0,0,0,0,0,0,0,0,0,0,0,0,0,0,0,0,0,0,5547,0,0,0,0,0,0,0,0,0,
0,0,0,0,0,0,0,5643,0,0,0,0,0,0,0,0,0,0,0,0,0,0,0,0,0,0,0,0,0,0,5595,0,0,0,0,0,0,0,0,0,
0,0,0,0,0,0,0,5691,0,0,0,5544,5545,0,0,0,0,0,0,0,0,0,0,0,5544,5545,0,0,0,0,0,0,0,0,0,0,0,0,0,0,
0,0,0,0,0,0,0,0,0,0,0,5592,5593,0,0,0,0,0,0,0,5645,0,0,0,5592,5593,0,0,0,0,0,0,0,0,0,0,0,0,0,0,
0,0,0,0,0,0,0,0,0,0,0,0,0,0,0,0,0,0,0,0,0,0,0,0,0,0,0,0,0,0,0,0,0,0,0,0,0,0,0,0
</data>
 </layer>
 <layer id="11" name="Road" width="40" height="40">
  <data encoding="csv">
5363,5363,5363,5363,5363,5363,5363,5363,5363,5363,5363,5363,5363,5363,5363,5363,5363,5363,5363,5363,5363,5363,5363,5363,5363,5363,5363,5363,5363,5363,5363,5363,5363,5363,5363,5363,5363,5363,5363,5363,
5363,5363,5363,5363,5363,5363,5363,5363,5363,5363,5363,5363,5363,5363,5363,5363,5363,5363,5363,5363,5363,5363,5363,5363,5363,5363,5363,5363,5363,5363,5363,5363,5363,5363,5363,5363,5363,5363,5363,5363,
5363,5363,5363,5363,5363,5363,5363,5363,5363,5363,5363,5363,5363,5363,5363,5363,5363,5363,5363,5363,5363,5363,5363,5363,5363,5363,5363,5363,5363,5363,5363,5363,5363,5363,5363,5363,5363,5363,5363,5363,
5363,5363,5363,5363,5363,5363,5363,5363,5363,5363,5363,5363,5363,5363,5363,5363,5363,5363,5363,5363,5363,5363,5363,5363,5363,5363,5363,5363,5363,5363,5363,5363,5363,5363,5363,5363,5363,5363,5363,5363,
5363,5363,5363,5363,5363,5363,5363,5363,5363,5363,5363,5363,5363,5363,5363,5363,5363,5363,5363,5363,5363,5363,5363,5363,5363,5363,5363,5363,5363,5363,5363,5363,5363,5363,5363,5363,5363,5363,5363,5363,
5363,5363,5363,5363,5363,5363,5363,5363,5363,5363,5363,5363,5363,5363,5363,5363,5363,5363,5363,5363,5363,5363,5363,5363,5363,5363,5363,5363,5363,5363,5363,5363,5363,5363,5363,5363,5363,5363,5363,5363,
5363,5363,5363,5363,5363,5363,5363,5363,5363,5363,5363,5363,5363,5363,5363,5363,5363,5363,5363,5363,5363,5363,5363,5363,5363,5363,5363,5363,5363,5363,5363,5363,5363,5363,5363,5363,5363,5363,5363,5363,
5363,5363,5363,5363,5363,5363,5363,5363,5363,5363,5363,5363,5363,5363,5363,5363,5363,5363,5363,5363,5363,5363,5363,5363,5363,5363,5363,5363,5363,5363,5363,5363,5363,5363,5363,5363,5363,5363,5363,5363,
5363,5363,5363,5363,5363,5363,5363,5363,5363,5363,5363,5363,5363,5363,5363,5363,5363,5363,5363,5363,5363,5363,5363,5363,5363,5363,5363,5363,5363,5363,5363,5363,5363,5363,5363,5363,5363,5363,5363,5363,
5363,5363,5317,5319,5363,5317,5318,5318,5318,5318,5318,5319,5363,5363,5363,5363,5363,5363,5363,5363,5363,5363,5363,5363,5363,5363,5363,5363,5363,5363,5363,5363,5363,5363,5363,5363,5363,5363,5363,5363,
5363,5317,5356,5331,5363,5329,5330,5341,5365,5324,5365,5346,5319,5363,5363,5363,5363,5363,5363,5363,5363,5363,5363,5363,5363,5363,5363,5363,5363,5363,5363,5363,5363,5363,5363,5363,5363,5363,5363,5363,
5363,5329,5331,5363,5363,5363,5363,5329,5330,5330,5330,5341,5346,5319,5363,5363,5363,5363,5363,5363,5363,5363,5317,5318,5319,5363,5363,5363,5363,5363,5363,5363,5363,5363,5363,5363,5363,5363,5363,5363,
5363,5363,5363,5363,5363,5363,5363,5363,5363,5363,5363,5329,5341,5346,5319,5363,5363,5363,5363,5317,5318,5318,5347,5365,5346,5318,5318,5318,5319,5363,5363,5363,5363,5363,5363,5363,5363,5363,5363,5363,
5363,5363,5363,5363,5363,5363,5363,5363,5363,5363,5363,5363,5329,5341,5346,5318,5318,5318,5318,5347,5340,5330,5330,5330,5330,5330,5330,5330,5357,5319,5363,5363,5363,5363,5316,5363,5363,5363,5363,5363,
5363,5363,5363,5363,5363,5363,5363,5363,5363,5363,5363,5363,5363,5329,5330,5341,5372,5340,5330,5330,5331,5363,5363,5363,5363,5363,5363,5363,5329,5357,5318,5318,5318,5318,5321,5363,5363,5363,5363,5363,
5363,5363,5363,5363,5363,5363,5363,5363,5363,5363,5363,5363,5363,5363,5363,5329,5330,5331,5363,5363,5363,5363,5363,5363,5363,5363,5363,5363,5363,5329,5330,5330,5330,5341,5325,5363,5363,5363,5363,5363,
5363,5363,5363,5363,5363,5363,5363,5363,5363,5363,5363,5363,5363,5363,5363,5363,5363,5363,5363,5363,5363,5363,5363,5363,5363,5363,5363,5363,5363,5363,5363,5363,5363,5323,5346,5319,5363,5363,5363,5363,
5363,5363,5363,5363,5363,5363,5363,5363,5363,5363,5363,5363,5363,5363,5363,5363,5363,5363,5363,5363,5363,5363,5363,5363,5363,5363,5363,5363,5363,5363,5363,5363,5363,5329,5330,5331,5363,5363,5363,5363,
5363,5363,5363,5363,5363,5363,5363,5363,5363,5363,5363,5363,5363,5363,5363,5363,5363,5363,5363,5363,5363,5363,5363,5363,5363,5363,5363,5363,5363,5363,5363,5363,5363,5363,5363,5363,5363,5363,5363,5363,
5363,5363,5363,5363,5363,5363,5363,5363,5363,5363,5363,5363,5363,5363,5363,5317,5318,5319,5363,5363,5363,5363,5363,5363,5363,5363,5363,5363,5363,5363,5363,5363,5363,5363,5363,5363,5363,5363,5363,5363,
5363,5363,5363,5363,5363,5363,5363,5363,5363,5363,5363,5363,5363,5363,5317,5347,5340,5331,5363,5363,5363,5363,5363,5363,5363,5363,5363,5363,5363,5363,5363,5363,5363,5363,5363,5363,5363,5363,5363,5363,
5363,5363,5363,5363,5363,5363,5363,5363,5363,5363,5363,5363,5363,5317,5347,5340,5331,5363,5363,5363,5363,5363,5363,5363,5363,5363,5363,5363,5363,5363,5363,5363,5363,5363,5363,5363,5363,5363,5363,5363,
5363,5363,5363,5363,5363,5363,5363,5363,5363,5363,5363,5363,5363,5329,5330,5331,5363,5363,5363,5363,5363,5363,5363,5363,5363,5363,5363,5363,5363,5363,5363,5363,5363,5317,5318,5319,5363,5363,5363,5363,
5363,5363,5363,5363,5363,5363,5363,5363,5363,5363,5363,5363,5363,5363,5363,5363,5363,5363,5363,5363,5363,5363,5363,5363,5363,5363,5363,5363,5363,5363,5363,5363,5363,5323,5372,5325,5363,5363,5363,5363,
5363,5363,5363,5363,5363,5363,5363,5363,5363,5363,5363,5363,5363,5363,5363,5363,5363,5363,5363,5363,5363,5363,5363,5363,5363,5363,5363,5363,5363,5363,5363,5363,5363,5323,5372,5325,5363,5363,5363,5363,
5363,5363,5363,5363,5363,5363,5363,5363,5363,5363,5363,5363,5363,5363,5363,5363,5363,5363,5363,5363,5363,5363,5363,5317,5319,5363,5363,5363,5363,5363,5363,5363,5363,5323,5366,5325,5363,5363,5363,5363,
5363,5363,5363,5363,5363,5363,5363,5363,5363,5363,5363,5363,5363,5363,5363,5363,5363,5363,5363,5363,5363,5363,5363,5329,5357,5319,5363,5363,5363,5363,5363,5363,5317,5347,5340,5331,5363,5363,5363,5363,
5363,5363,5363,5363,5363,5363,5363,5363,5363,5363,5363,5363,5363,5363,5363,5363,5363,5363,5363,5363,5363,5363,5363,5363,5329,5331,5317,5318,5318,5318,5318,5318,5347,5371,5325,5363,5363,5363,5363,5363,
5363,5363,5363,5363,5363,5363,5363,5363,5363,5363,5363,5363,5363,5363,5363,5363,5363,5363,5363,5363,5363,5363,5363,5363,5363,5363,5329,5330,5330,5330,5330,5330,5341,5364,5325,5363,5363,5363,5363,5363,
5363,5363,5363,5363,5363,5363,5363,5363,5363,5363,5363,5363,5363,5363,5363,5363,5363,5363,5363,5363,5363,5363,5363,5363,5363,5363,5363,5363,5363,5363,5363,5363,5329,5330,5331,5363,5363,5363,5363,5363,
5363,5363,5363,5363,5363,5363,5363,5363,5363,5363,5363,5363,5363,5363,5363,5363,5363,5363,5363,5363,5363,5363,5363,5363,5363,5363,5363,5363,5363,5363,5363,5363,5363,5363,5363,5363,5363,5363,5363,5363,
5363,5363,5363,5363,5363,5363,5363,5363,5363,5363,5363,5363,5363,5363,5363,5363,5363,5363,5363,5363,5363,5363,5363,5363,5363,5363,5363,5363,5363,5363,5363,5363,5363,5363,5363,5363,5363,5363,5363,5363,
5363,5363,5363,5363,5363,5363,5363,5363,5363,5363,5363,5363,5363,5363,5363,5363,5363,5363,5363,5363,5363,5363,5363,5363,5363,5363,5363,5363,5363,5363,5363,5363,5363,5363,5363,5363,5363,5363,5363,5363,
5363,5363,5363,5363,5363,5363,5363,5363,5363,5363,5363,5363,5363,5363,5363,5363,5363,5363,5363,5363,5363,5363,5363,5363,5363,5363,5363,5363,5363,5363,5363,5363,5317,5318,5319,5363,5363,5363,5363,5363,
5363,5363,5363,5363,5363,5363,5363,5363,5363,5363,5363,5363,5363,5363,5363,5363,5363,5363,5363,5363,5363,5363,5363,5363,5363,5363,5363,5363,5363,5363,5363,5363,5329,5341,5325,5363,5363,5363,5363,5363,
5363,5363,5363,5363,5363,5363,5363,5363,5363,5363,5363,5363,5363,5363,5363,5363,5363,5363,5363,5363,5363,5363,5363,5363,5363,5363,5363,5363,5363,5363,5363,5363,5363,5323,5346,5319,5363,5363,5363,5363,
5363,5363,5363,5363,5363,5363,5363,5363,5363,5363,5363,5363,5363,5363,5363,5363,5363,5363,5363,5363,5363,5363,5363,5363,5363,5363,5363,5363,5363,5363,5363,5363,5363,5329,5341,5346,5319,5363,5363,5363,
5363,5363,5363,5363,5363,5363,5363,5363,5363,5363,5363,5363,5363,5363,5363,5363,5363,5363,5363,5363,5363,5363,5363,5363,5363,5363,5363,5363,5363,5363,5363,5363,5363,5363,5329,5341,5325,5363,5363,5363,
5363,5363,5363,5363,5363,5363,5363,5363,5363,5363,5363,5363,5363,5363,5363,5363,5363,5363,5363,5363,5363,5363,5363,5363,5363,5363,5363,5363,5363,5363,5363,5363,5363,5363,5363,5323,5325,5363,5363,5363,
5363,5363,5363,5363,5363,5363,5363,5363,5363,5363,5363,5363,5363,5363,5363,5363,5363,5363,5363,5363,5363,5363,5363,5363,5363,5363,5363,5363,5363,5363,5363,5363,5363,5363,5363,5329,5331,5363,5363,5363
</data>
 </layer>
 <layer id="2" name="RockSlopes" width="40" height="40" visible="0">
  <data encoding="csv">
854,854,854,854,854,856,856,856,856,856,856,856,856,856,856,856,856,856,856,856,856,856,856,854,854,854,854,854,854,854,854,854,854,854,854,854,854,854,854,854,
856,856,856,856,856,856,855,855,855,855,855,855,855,855,855,855,855,855,855,855,855,855,856,856,856,856,856,856,856,854,854,854,854,854,854,854,854,854,854,854,
856,855,855,855,855,855,855,855,855,855,855,855,855,855,855,855,855,855,855,855,855,855,855,855,855,855,855,855,856,854,854,854,854,854,854,854,854,854,854,854,
856,855,855,855,855,855,855,854,854,854,854,854,854,855,855,855,855,855,855,855,855,855,855,855,855,855,855,855,856,856,856,856,854,854,854,854,854,854,854,854,
855,855,855,855,855,854,854,854,854,854,854,854,856,855,854,854,854,854,854,854,854,855,855,855,855,855,855,855,855,855,855,856,856,856,856,854,854,854,854,854,
855,855,854,854,855,856,856,856,856,856,856,856,856,855,854,854,854,854,854,854,854,854,854,854,854,854,854,855,855,855,855,855,855,855,856,856,856,856,856,854,
855,855,854,854,855,855,855,855,857,857,855,855,855,855,854,854,854,854,854,854,854,854,854,854,854,854,854,855,855,855,855,855,855,855,855,855,855,855,856,856,
854,854,854,854,854,854,854,854,854,854,854,854,854,854,854,854,854,854,854,854,854,854,854,854,854,854,854,854,854,854,855,855,855,855,855,855,855,855,855,855,
854,854,854,854,854,854,854,854,854,854,854,854,854,854,854,854,854,854,854,854,854,854,854,854,854,854,854,854,854,854,854,854,854,855,855,855,855,855,855,855,
854,854,854,854,854,854,854,854,854,854,854,854,854,854,854,854,854,854,854,854,854,854,854,854,854,854,854,854,854,854,854,854,854,854,854,854,854,855,855,855,
854,854,854,854,854,854,854,854,854,854,854,854,854,854,854,854,854,854,854,854,854,854,854,854,854,854,854,854,854,854,854,854,854,854,854,854,854,854,854,854,
854,854,854,854,854,854,854,854,854,854,854,854,854,854,854,854,854,854,854,854,854,854,854,854,854,854,854,854,854,854,854,854,854,854,854,854,854,854,854,854,
854,854,854,854,854,854,854,854,854,854,854,854,854,854,854,854,854,854,854,854,854,854,854,854,854,854,854,854,854,854,854,854,854,854,854,854,854,854,854,854,
854,854,854,854,854,854,854,854,854,854,854,854,854,854,854,854,854,854,854,854,854,854,854,854,854,854,854,854,854,854,854,854,854,854,854,854,854,854,854,854,
854,854,854,854,854,854,854,854,854,854,854,854,854,854,854,854,854,854,854,854,854,854,854,854,854,854,854,854,854,854,854,854,854,854,854,854,854,854,854,854,
854,856,856,856,856,856,856,856,856,856,856,856,856,856,854,854,854,854,854,854,854,854,854,854,854,854,854,854,854,854,854,854,854,854,854,854,854,854,854,854,
854,856,855,855,855,855,855,855,855,855,855,855,855,856,856,856,856,856,856,856,856,856,854,854,854,854,854,854,854,854,854,854,854,854,854,854,854,854,854,854,
856,856,855,854,854,854,854,854,854,854,854,854,855,855,855,857,857,857,855,855,855,856,856,856,854,854,854,854,854,854,854,854,854,854,854,854,854,854,854,854,
855,855,855,854,854,854,854,854,854,854,854,854,854,854,854,854,854,854,854,854,855,855,855,856,854,854,854,854,854,854,856,856,856,856,856,856,856,856,856,854,
854,854,854,854,854,854,854,854,854,854,854,854,854,854,854,854,854,854,854,854,854,854,855,856,856,856,856,856,856,856,856,855,855,857,857,857,855,855,856,854,
854,854,854,854,854,854,854,854,854,854,854,854,854,854,854,854,854,854,854,856,856,856,855,855,855,855,855,855,855,855,855,855,855,857,857,857,855,855,856,854,
854,854,854,854,854,854,854,854,854,854,854,854,854,854,854,854,854,856,856,856,855,855,855,855,855,855,855,855,855,855,855,855,854,854,854,854,854,855,856,854,
854,854,854,854,854,854,854,854,854,854,854,854,854,854,854,856,856,856,855,855,855,854,854,854,854,854,854,854,854,854,854,854,854,854,854,854,854,855,856,856,
856,856,856,856,856,856,856,854,854,854,854,854,854,854,854,856,855,855,855,854,854,854,854,854,854,854,854,854,854,854,854,854,854,854,854,854,854,855,855,855,
855,855,855,855,855,855,856,854,854,854,854,854,854,854,854,856,855,854,854,854,854,854,854,854,854,854,854,854,854,854,854,854,854,854,854,854,854,855,855,855,
854,854,854,854,854,855,856,854,854,854,854,856,856,856,856,856,855,854,854,854,854,854,854,854,854,854,854,854,854,854,854,854,854,854,854,854,854,854,854,854,
854,854,854,854,854,855,856,856,856,856,856,856,855,855,855,855,855,856,856,856,856,854,854,854,854,854,854,854,854,854,854,854,854,854,854,854,854,854,854,854,
854,854,856,856,856,855,855,855,855,855,855,855,855,855,855,855,855,855,855,855,856,854,854,854,854,854,854,854,854,854,854,854,854,854,854,854,854,854,854,854,
856,856,856,855,855,855,855,855,855,855,855,855,855,854,854,854,854,854,854,855,856,854,856,856,856,856,856,856,856,856,854,854,854,854,854,854,854,856,856,856,
856,855,855,855,854,854,854,854,854,854,854,854,854,854,854,854,854,854,854,855,856,856,856,855,855,855,855,855,855,856,856,856,854,854,854,856,856,856,855,855,
855,855,854,854,854,854,854,854,854,854,854,854,854,854,854,854,854,854,854,855,855,855,855,855,854,854,854,854,855,855,855,856,856,856,856,856,855,855,855,854,
854,854,854,854,854,854,854,854,854,854,854,854,854,854,854,854,854,854,854,854,854,854,854,854,854,854,854,854,854,854,855,855,857,857,857,855,855,854,854,854,
854,854,854,854,854,854,854,854,854,854,854,854,854,854,854,854,854,854,854,854,854,854,854,854,854,854,854,854,854,854,854,854,854,854,854,854,854,854,854,854,
854,854,854,854,854,854,854,854,854,854,854,854,854,854,854,854,854,854,854,854,854,854,854,854,854,854,854,854,854,854,854,854,854,854,854,854,854,854,854,854,
854,854,854,854,854,854,854,854,854,854,854,854,854,854,854,854,854,854,854,854,854,854,854,854,854,854,854,854,854,854,854,854,854,854,854,854,854,854,854,854,
854,854,854,854,854,854,854,854,854,854,854,854,854,854,854,854,854,854,854,854,854,854,854,854,854,854,854,854,854,854,854,854,854,854,854,854,854,854,854,854,
854,854,854,854,854,854,854,854,854,854,854,854,854,854,854,854,854,854,854,854,854,854,854,854,854,854,854,854,854,854,854,854,854,854,854,854,854,854,854,854,
854,854,854,854,854,854,854,854,854,854,854,854,854,854,854,854,854,854,854,854,854,854,854,854,854,854,854,854,854,854,854,854,854,854,854,854,854,854,854,854,
854,854,854,854,854,854,854,854,854,854,854,854,854,854,854,854,854,854,854,854,854,854,854,854,854,854,854,854,854,854,854,854,854,854,854,854,854,854,854,854,
854,854,854,854,854,854,854,854,854,854,854,854,854,854,854,854,854,854,854,854,854,854,854,854,854,854,854,854,854,854,854,854,854,854,854,854,854,854,854,854
</data>
 </layer>
 <layer id="12" name="RockSlopes_Auto" width="40" height="40">
  <data encoding="csv">
0,0,0,0,0,0,0,0,0,0,0,0,0,0,0,0,0,0,0,0,0,0,0,0,0,0,0,0,0,0,0,0,0,0,0,0,0,0,0,0,
0,0,0,0,0,0,1637,1883,1688,1884,1688,1883,1688,2601,2844,2584,2843,2584,2844,2584,2843,2603,0,0,0,0,0,0,0,0,0,0,0,0,0,0,0,0,0,0,
0,2547,2584,2584,2599,1688,1701,1947,1752,1948,1752,1947,1752,2665,2908,2648,2907,2648,2908,2648,2907,2667,2584,2584,2584,2584,2584,2541,0,0,0,0,0,0,0,0,0,0,0,0,
0,2611,2648,2648,2663,1752,1765,0,0,0,0,0,0,2729,2972,2712,2971,2712,2972,2712,2971,2731,2648,2648,2648,2648,2648,2605,0,0,0,0,0,0,0,0,0,0,0,0,
2843,2675,2712,2712,2727,0,0,0,0,0,0,0,0,985,0,0,0,0,0,0,0,2795,2712,2712,2712,2712,2712,2669,2584,2584,2603,0,0,0,0,0,0,0,0,0,
2907,2739,0,0,983,0,0,0,0,0,0,0,0,985,0,0,0,0,0,0,0,0,0,0,0,0,0,2733,2648,2648,2667,2844,2843,2603,0,0,0,0,0,0,
2971,2803,0,0,1047,1048,1180,1303,1432,1433,1307,1048,1180,1049,0,0,0,0,0,0,0,0,0,0,0,0,0,2797,2712,2712,2731,2908,2907,2667,2843,2584,2844,2603,0,0,
0,0,0,0,0,0,0,0,0,0,0,0,0,0,0,0,0,0,0,0,0,0,0,0,0,0,0,0,0,0,2795,2972,2971,2731,2907,2648,2908,2667,2584,2843,
0,0,0,0,0,0,0,0,0,0,0,0,0,0,0,0,0,0,0,0,0,0,0,0,0,0,0,0,0,0,0,0,0,2795,2971,2712,2972,2731,2648,2907,
0,0,0,0,0,0,0,0,0,0,0,0,0,0,0,0,0,0,0,0,0,0,0,0,0,0,0,0,0,0,0,0,0,0,0,0,0,2795,2712,2971,
0,0,0,0,0,0,0,0,0,0,0,0,0,0,0,0,0,0,0,0,0,0,0,0,0,0,0,0,0,0,0,0,0,0,0,0,0,0,0,0,
0,0,0,0,0,0,0,0,0,0,0,0,0,0,0,0,0,0,0,0,0,0,0,0,0,0,0,0,0,0,0,0,0,0,0,0,0,0,0,0,
0,0,0,0,0,0,0,0,0,0,0,0,0,0,0,0,0,0,0,0,0,0,0,0,0,0,0,0,0,0,0,0,0,0,0,0,0,0,0,0,
0,0,0,0,0,0,0,0,0,0,0,0,0,0,0,0,0,0,0,0,0,0,0,0,0,0,0,0,0,0,0,0,0,0,0,0,0,0,0,0,
0,0,0,0,0,0,0,0,0,0,0,0,0,0,0,0,0,0,0,0,0,0,0,0,0,0,0,0,0,0,0,0,0,0,0,0,0,0,0,0,
0,0,0,0,0,0,0,0,0,0,0,0,0,0,0,0,0,0,0,0,0,0,0,0,0,0,0,0,0,0,0,0,0,0,0,0,0,0,0,0,
0,0,1175,1048,1179,1048,1048,1048,1048,1048,1048,1048,1177,0,0,0,0,0,0,0,0,0,0,0,0,0,0,0,0,0,0,0,0,0,0,0,0,0,0,0,
0,0,985,0,0,0,0,0,0,0,0,0,1047,1048,1303,1304,1305,1306,1307,1179,1177,0,0,0,0,0,0,0,0,0,0,0,0,0,0,0,0,0,0,0,
1048,1048,1049,0,0,0,0,0,0,0,0,0,0,0,0,0,0,0,0,0,1047,1048,1177,0,0,0,0,0,0,0,0,0,0,0,0,0,0,0,0,0,
0,0,0,0,0,0,0,0,0,0,0,0,0,0,0,0,0,0,0,0,0,0,983,0,0,0,0,0,0,0,0,1637,2071,2072,2073,2074,2075,1881,0,0,
0,0,0,0,0,0,0,0,0,0,0,0,0,0,0,0,0,0,0,0,0,0,1693,1688,1688,1688,1688,1688,1688,1688,1688,1701,2135,2136,2137,2138,2139,1945,0,0,
0,0,0,0,0,0,0,0,0,0,0,0,0,0,0,0,0,0,0,0,1175,1048,1757,1752,1752,1752,1752,1752,1752,1752,1752,1765,0,0,0,0,0,983,0,0,
0,0,0,0,0,0,0,0,0,0,0,0,0,0,0,0,0,0,1175,1048,1049,0,0,0,0,0,0,0,0,0,0,0,0,0,0,0,0,983,0,0,
0,0,0,0,0,0,0,0,0,0,0,0,0,0,0,0,1175,1048,1049,0,0,0,0,0,0,0,0,0,0,0,0,0,0,0,0,0,0,1687,1688,1688,
1048,1048,1179,1048,1048,1177,0,0,0,0,0,0,0,0,0,0,985,0,0,0,0,0,0,0,0,0,0,0,0,0,0,0,0,0,0,0,0,1751,1752,1752,
0,0,0,0,0,983,0,0,0,0,0,0,0,0,0,0,985,0,0,0,0,0,0,0,0,0,0,0,0,0,0,0,0,0,0,0,0,0,0,0,
0,0,0,0,0,983,0,0,0,0,0,0,1637,1883,1688,1884,1691,0,0,0,0,0,0,0,0,0,0,0,0,0,0,0,0,0,0,0,0,0,0,0,
0,0,0,0,0,1693,1883,1688,1688,1883,1884,1688,1701,1947,1752,1948,1755,1048,1048,1177,0,0,0,0,0,0,0,0,0,0,0,0,0,0,0,0,0,0,0,0,
0,0,0,1175,1048,1757,1947,1752,1752,1947,1948,1752,1765,0,0,0,0,0,0,983,0,0,0,0,0,0,0,0,0,0,0,0,0,0,0,0,0,0,0,0,
0,1175,1179,1049,0,0,0,0,0,0,0,0,0,0,0,0,0,0,0,983,0,0,0,1175,1180,1048,1180,1048,1177,0,0,0,0,0,0,0,0,0,1175,1048,
1048,1049,0,0,0,0,0,0,0,0,0,0,0,0,0,0,0,0,0,1047,1048,1180,1179,1049,0,0,0,0,1047,1048,1177,0,0,0,0,0,1175,1048,1049,0,
0,0,0,0,0,0,0,0,0,0,0,0,0,0,0,0,0,0,0,0,0,0,0,0,0,0,0,0,0,0,1047,1303,1304,1305,1306,1307,1049,0,0,0,
0,0,0,0,0,0,0,0,0,0,0,0,0,0,0,0,0,0,0,0,0,0,0,0,0,0,0,0,0,0,0,0,0,0,0,0,0,0,0,0,
0,0,0,0,0,0,0,0,0,0,0,0,0,0,0,0,0,0,0,0,0,0,0,0,0,0,0,0,0,0,0,0,0,0,0,0,0,0,0,0,
0,0,0,0,0,0,0,0,0,0,0,0,0,0,0,0,0,0,0,0,0,0,0,0,0,0,0,0,0,0,0,0,0,0,0,0,0,0,0,0,
0,0,0,0,0,0,0,0,0,0,0,0,0,0,0,0,0,0,0,0,0,0,0,0,0,0,0,0,0,0,0,0,0,0,0,0,0,0,0,0,
0,0,0,0,0,0,0,0,0,0,0,0,0,0,0,0,0,0,0,0,0,0,0,0,0,0,0,0,0,0,0,0,0,0,0,0,0,0,0,0,
0,0,0,0,0,0,0,0,0,0,0,0,0,0,0,0,0,0,0,0,0,0,0,0,0,0,0,0,0,0,0,0,0,0,0,0,0,0,0,0,
0,0,0,0,0,0,0,0,0,0,0,0,0,0,0,0,0,0,0,0,0,0,0,0,0,0,0,0,0,0,0,0,0,0,0,0,0,0,0,0,
0,0,0,0,0,0,0,0,0,0,0,0,0,0,0,0,0,0,0,0,0,0,0,0,0,0,0,0,0,0,0,0,0,0,0,0,0,0,0,0
</data>
 </layer>
 <layer id="3" name="Water" width="40" height="40">
  <data encoding="csv">
5177,5177,5177,5177,5177,5177,5177,5177,5177,5177,5177,5177,5177,5177,5177,5177,5177,5177,5177,5177,5177,5177,5177,5177,5177,5177,5177,5177,5053,5101,5030,5031,5177,5177,5177,5177,5177,5177,5177,5177,
5177,5177,5177,5177,5177,5177,5177,5177,5177,5177,5177,5177,5177,5177,5177,5177,5177,5177,5177,5177,5177,5177,5177,5177,5177,5177,5177,5177,5177,5244,5196,5124,5007,5177,5177,5177,5177,5177,5177,5177,
5177,5177,5177,5177,5177,5177,5177,5177,5177,5177,5177,5177,5177,5177,5177,5177,5177,5177,5177,5177,5177,5177,5177,5177,5177,5177,5177,5177,5177,5053,5054,5101,5124,5249,5249,5007,5177,5177,5177,5177,
5177,5177,5177,5177,5177,5177,5177,5177,5177,5177,5177,5177,5177,5177,5177,5177,5177,5177,5177,5177,5177,5177,5177,5177,5177,5177,5177,5177,5177,5177,5177,5053,5269,5101,5030,5124,5006,5006,5007,5177,
5177,5177,5177,5177,5177,5177,5177,5177,5177,5177,5177,5177,5177,5177,5177,5177,5177,5177,5177,5177,5177,5177,5177,5177,5177,5177,5177,5177,5177,5177,5177,5177,5177,5053,5054,5101,5030,5030,5124,5249,
5177,5177,5177,5177,5177,5177,5177,5177,5177,5177,5177,5177,5177,5177,5177,5177,5177,5177,5177,5177,5177,5177,5177,5177,5177,5177,5177,5177,5177,5177,5177,5177,5177,5177,5177,5053,5273,5054,5101,5196,
5177,5177,5177,5177,5177,5177,5177,5177,5177,5177,5177,5177,5177,5177,5177,5177,5177,5177,5177,5177,5177,5177,5177,5177,5177,5177,5177,5177,5177,5177,5177,5177,5177,5177,5177,5177,5177,5177,5053,5054,
5177,5177,5177,5177,5177,5177,5177,5177,5177,5177,5177,5177,5177,5177,5177,5177,5177,5177,5177,5177,5177,5177,5177,5177,5177,5177,5177,5177,5177,5177,5177,5177,5177,5177,5177,5177,5177,5177,5177,5177,
5177,5177,5177,5177,5177,5177,5177,5177,5177,5177,5177,5177,5177,5177,5177,5177,5177,5177,5177,5177,5177,5177,5177,5177,5177,5177,5177,5177,5177,5177,5177,5177,5177,5177,5177,5177,5177,5177,5177,5177,
5177,5177,5177,5177,5177,5177,5177,5177,5177,5177,5177,5177,5177,5177,5177,5177,5177,5177,5177,5177,5177,5177,5177,5177,5177,5177,5177,5177,5177,5177,5177,5177,5177,5177,5177,5177,5177,5177,5177,5177,
5177,5177,5177,5177,5177,5177,5177,5177,5177,5177,5177,5177,5177,5177,5177,5177,5177,5177,5177,5177,5177,5177,5177,5177,5177,5177,5177,5177,5177,5177,5177,5177,5177,5177,5177,5177,5177,5177,5177,5177,
5177,5177,5177,5177,5177,5177,5177,5177,5177,5177,5177,5177,5177,5177,5177,5177,5177,5177,5177,5177,5177,5177,5177,5177,5177,5177,5177,5177,5177,5177,5177,5177,5177,5177,5177,5177,5177,5177,5177,5177,
5177,5177,5177,5177,5177,5177,5177,5177,5177,5177,5177,5177,5177,5177,5177,5177,5177,5177,5177,5177,5177,5177,5177,5177,5177,5177,5177,5177,5177,5177,5177,5177,5177,5177,5177,5177,5177,5177,5177,5177,
5177,5177,5177,5177,5177,5177,5177,5177,5177,5177,5177,5177,5177,5177,5177,5177,5177,5177,5177,5177,5177,5177,5177,5177,5177,5177,5177,5177,5177,5177,5177,5177,5177,5177,5177,5177,5177,5177,5177,5177,
5177,5177,5177,5177,5177,5177,5177,5177,5177,5177,5177,5177,5177,5177,5177,5177,5177,5177,5177,5177,5177,5177,5177,5177,5177,5177,5177,5177,5177,5177,5177,5177,5177,5177,5177,5177,5177,5177,5177,5177,
5177,5177,5177,5177,5177,5177,5177,5177,5177,5177,5177,5177,5177,5177,5177,5177,5177,5177,5177,5177,5177,5177,5177,5177,5177,5177,5177,5177,5177,5177,5177,5177,5177,5177,5177,5177,5177,5177,5177,5177,
5177,5177,5177,5177,5177,5177,5177,5177,5177,5177,5177,5177,5177,5177,5177,5177,5177,5177,5177,5177,5177,5177,5177,5177,5177,5177,5177,5177,5177,5177,5177,5177,5177,5177,5177,5177,5177,5177,5177,5177,
5177,5177,5177,5177,5177,5177,5177,5177,5177,5177,5177,5177,5177,5177,5177,5177,5177,5177,5177,5177,5177,5177,5177,5177,5177,5177,5177,5177,5177,5177,5177,5177,5177,5177,5177,5177,5177,5177,5177,5177,
5177,5177,5177,5177,5177,5177,5177,5177,5177,5177,5177,5177,5177,5177,5177,5177,5177,5177,5177,5177,5177,5177,5177,5177,5177,5177,5177,5177,5177,5177,5177,5177,5177,5177,5177,5177,5177,5177,5177,5177,
5177,5177,5177,5177,5177,5177,5177,5177,5177,5177,5177,5177,5177,5177,5177,5177,5177,5177,5177,5177,5177,5177,5177,5177,5177,5177,5177,5177,5177,5177,5177,5177,5177,5177,5177,5177,5177,5177,5177,5177,
5177,5177,5177,5177,5177,5177,5177,5177,5177,5177,5177,5177,5177,5177,5177,5177,5177,5177,5177,5177,5177,5177,5177,5177,5177,5177,5177,5177,5177,5177,5177,5177,5177,5177,5177,5177,5177,5177,5177,5177,
5177,5177,5177,5177,5177,5177,5177,5177,5177,5177,5177,5177,5177,5177,5177,5177,5177,5177,5177,5177,5177,5177,5177,5177,5177,5177,5177,5177,5177,5177,5177,5177,5177,5177,5177,5177,5177,5177,5177,5177,
5177,5177,5177,5177,5177,5177,5177,5177,5177,5177,5177,5177,5177,5177,5177,5177,5177,5177,5177,5177,5177,5177,5177,5177,5177,5177,5177,5177,5177,5177,5177,5177,5177,5177,5177,5177,5177,5177,5177,5177,
5177,5177,5177,5177,5177,5177,5177,5177,5177,5177,5177,5177,5177,5177,5177,5177,5177,5177,5177,5177,5177,5177,5177,5177,5177,5177,5177,5177,5177,5177,5177,5177,5177,5177,5177,5177,5177,5177,5177,5177,
5177,5177,5177,5177,5177,5177,5177,5177,5177,5177,5177,5177,5177,5177,5177,5177,5177,5177,5177,5177,5177,5177,5177,5177,5177,5177,5177,5177,5177,5177,5177,5177,5177,5177,5177,5177,5177,5177,5177,5177,
5177,5177,5177,5177,5177,5177,5177,5177,5177,5177,5177,5177,5177,5177,5177,5177,5177,5177,5177,5177,5177,5177,5177,5177,5177,5177,5177,5177,5177,5177,5177,5177,5177,5177,5177,5177,5177,5177,5177,5177,
5177,5177,5177,5177,5177,5177,5177,5177,5177,5177,5177,5177,5177,5177,5177,5177,5177,5177,5177,5177,5177,5177,5177,5177,5177,5177,5177,5177,5177,5177,5177,5177,5177,5177,5177,5177,5177,5177,5177,5177,
5177,5177,5177,5177,5177,5177,5177,5177,5177,5177,5177,5177,5177,5177,5177,5177,5177,5177,5177,5177,5177,5177,5177,5177,5177,5177,5177,5177,5177,5177,5177,5177,5177,5177,5177,5177,5177,5177,5177,5177,
5177,5177,5177,5177,5177,5177,5177,5177,5177,5177,5177,5177,5177,5177,5177,5177,5177,5177,5177,5177,5177,5177,5177,5177,5177,5177,5177,5177,5177,5177,5177,5177,5177,5177,5177,5177,5177,5177,5177,5177,
5177,5177,5177,5177,5177,5177,5177,5177,5177,5177,5177,5177,5177,5177,5177,5177,5177,5177,5177,5177,5177,5177,5177,5177,5177,5177,5177,5177,5177,5177,5177,5177,5177,5177,5177,5177,5177,5177,5177,5177,
5177,5177,5177,5177,5005,5006,5006,5271,5006,5006,5006,5006,5007,5177,5177,5177,5177,5177,5177,5177,5177,5177,5177,5177,5177,5177,5177,5177,5177,5177,5177,5177,5177,5177,5177,5177,5177,5177,5177,5177,
5177,5177,5177,5005,5125,5030,5197,5030,5198,5030,5198,5197,5124,5007,5177,5177,5177,5177,5177,5177,5177,5177,5177,5177,5177,5177,5177,5177,5177,5177,5177,5177,5177,5177,5177,5177,5177,5177,5177,5177,
5177,5177,5005,5125,5100,5054,5273,5269,5054,5269,5269,5101,5030,5124,5007,5177,5177,5177,5177,5177,5177,5177,5177,5177,5177,5177,5177,5177,5177,5177,5177,5177,5177,5177,5177,5177,5177,5177,5177,5177,
5006,5006,5125,5100,5055,5177,5177,5177,5177,5177,5177,5053,5101,5198,5124,5007,5177,5177,5177,5177,5177,5005,5006,5006,5271,5271,5006,5006,5007,5177,5177,5177,5177,5177,5177,5177,5177,5177,5177,5177,
5197,5030,5100,5055,5177,5177,5177,5177,5177,5177,5177,5177,5053,5101,5196,5031,5177,5177,5177,5177,5005,5125,5030,5198,5197,5030,5030,5030,5124,5007,5177,5177,5177,5177,5177,5177,5177,5177,5177,5177,
5247,5054,5055,5177,5177,5177,5177,5177,5177,5177,5177,5177,5177,5029,5196,5124,5006,5245,5006,5245,5125,5030,5100,5247,5273,5247,5101,5197,5197,5272,5177,5177,5177,5177,5177,5177,5177,5177,5177,5177,
5177,5177,5177,5177,5177,5177,5177,5177,5177,5177,5177,5177,5177,5053,5101,5030,5030,5198,5198,5198,5030,5100,5055,5177,5177,5177,5053,5101,5198,5246,5177,5177,5177,5177,5177,5177,5177,5177,5177,5177,
5177,5177,5177,5177,5177,5177,5177,5177,5177,5177,5177,5177,5177,5177,5053,5247,5054,5054,5054,5054,5269,5055,5177,5177,5177,5177,5177,5029,5196,5124,5007,5177,5177,5177,5177,5177,5177,5177,5177,5177,
5177,5177,5177,5177,5177,5177,5177,5177,5177,5177,5177,5177,5177,5177,5177,5177,5177,5177,5177,5177,5177,5177,5177,5177,5177,5177,5177,5270,5030,5197,5246,5177,5177,5177,5177,5177,5177,5177,5177,5177,
5177,5177,5177,5177,5177,5177,5177,5177,5177,5177,5177,5177,5177,5177,5177,5177,5177,5177,5177,5177,5177,5177,5177,5177,5177,5177,5177,5029,5198,5197,5124,5007,5177,5177,5177,5177,5177,5177,5177,5177
</data>
 </layer>
 <objectgroup id="10" name="Object Layer 1">
  <object id="1" gid="446" x="56" y="330" width="128" height="128"/>
  <object id="2" gid="445" x="245" y="154" width="175" height="128"/>
  <object id="3" gid="444" x="342" y="426" width="157" height="112"/>
  <object id="4" gid="443" x="510" y="201" width="89" height="91"/>
  <object id="5" gid="482" x="405" y="684" width="52" height="92"/>
  <object id="6" gid="480" x="364" y="686" width="64" height="63"/>
  <object id="7" gid="481" x="111" y="568" width="46" height="63"/>
  <object id="8" gid="483" x="330" y="704" width="48" height="93"/>
  <object id="9" gid="481" x="297" y="679" width="46" height="63"/>
  <object id="10" gid="482" x="264" y="670" width="52" height="92"/>
  <object id="11" gid="483" x="213" y="692" width="48" height="93"/>
  <object id="12" gid="480" x="-33" y="606" width="64" height="63"/>
  <object id="13" gid="482" x="5" y="692" width="52" height="92"/>
  <object id="14" gid="483" x="52" y="708" width="48" height="93"/>
  <object id="15" gid="480" x="83" y="662" width="64" height="63"/>
  <object id="16" gid="481" x="136" y="683" width="46" height="63"/>
  <object id="17" gid="482" x="172" y="712" width="52" height="92"/>
  <object id="18" gid="473" x="-24" y="630" width="40" height="29"/>
  <object id="19" gid="467" x="149" y="399" width="42" height="39"/>
  <object id="22" gid="451" x="148" y="411" width="14" height="16"/>
  <object id="23" gid="451" x="173" y="415" width="14" height="16"/>
  <object id="24" gid="450" x="126" y="400" width="14" height="30"/>
  <object id="26" gid="464" x="308" y="395" width="29" height="32"/>
  <object id="27" gid="462" x="271" y="401" width="30" height="22"/>
  <object id="28" gid="453" x="328" y="473" width="32" height="31"/>
  <object id="30" gid="461" x="494" y="493" width="24" height="59"/>
  <object id="31" gid="482" x="-24" y="526" width="52" height="92"/>
  <object id="32" gid="480" x="-31" y="459" width="64" height="63"/>
  <object id="33" gid="481" x="-7" y="424" width="46" height="63"/>
  <object id="34" gid="483" x="-31" y="392" width="48" height="93"/>
  <object id="35" gid="482" x="-23" y="340" width="52" height="92"/>
  <object id="36" gid="480" x="-33" y="274" width="64" height="63"/>
  <object id="37" gid="475" x="55" y="411" width="28" height="28"/>
  <object id="38" gid="481" x="-5" y="256" width="46" height="63"/>
  <object id="39" gid="482" x="620" y="245" width="52" height="92"/>
  <object id="40" gid="482" x="27" y="104" width="52" height="92"/>
  <object id="41" gid="480" x="6" y="130" width="64" height="63"/>
  <object id="42" gid="481" x="607" y="285" width="46" height="63"/>
  <object id="43" gid="480" x="226" y="90" width="64" height="63"/>
  <object id="44" gid="476" x="418" y="97" width="16" height="28"/>
  <object id="45" gid="482" x="425" y="137" width="52" height="92"/>
  <object id="46" gid="481" x="602" y="191" width="46" height="63"/>
  <object id="47" gid="474" x="481" y="135" width="48" height="16"/>
  <object id="48" gid="480" x="-41" y="71" width="64" height="63"/>
  <object id="49" gid="480" x="115" y="16" width="64" height="63"/>
  <object id="50" gid="481" x="65" y="33" width="46" height="63"/>
  <object id="51" gid="482" x="-15" y="22" width="52" height="92"/>
  <object id="52" gid="483" x="25" y="11" width="48" height="93"/>
  <object id="53" gid="483" x="380" y="15" width="48" height="93"/>
  <object id="54" gid="480" x="519" y="17" width="64" height="63"/>
  <object id="55" gid="481" x="570" y="41" width="46" height="63"/>
  <object id="56" gid="482" x="602" y="24" width="52" height="92"/>
  <object id="57" gid="482" x="608" y="366" width="52" height="92"/>
  <object id="58" gid="480" x="606" y="430" width="64" height="63"/>
  <object id="59" gid="473" x="197" y="12" width="40" height="29"/>
  <object id="60" gid="481" x="279" y="13" width="46" height="63"/>
  <object id="62" gid="483" x="588" y="341" width="48" height="93"/>
  <object id="63" gid="483" x="588" y="713" width="48" height="93"/>
  <object id="64" gid="481" x="618" y="650" width="46" height="63"/>
  <object id="65" gid="482" x="623" y="604" width="52" height="92"/>
  <object id="66" gid="481" x="579" y="516" width="46" height="63"/>
  <object id="67" gid="480" x="605" y="534" width="64" height="63"/>
  <object id="68" gid="473" x="619" y="462" width="40" height="29"/>
  <object id="69" gid="470" x="259" y="559" width="27" height="27"/>
  <object id="70" gid="471" x="213" y="464" width="14" height="14"/>
  <object id="71" gid="470" x="43" y="612" width="27" height="27"/>
  <object id="72" gid="468" x="101" y="547" width="28" height="14"/>
  <object id="73" gid="469" x="189" y="584" width="15" height="30"/>
  <object id="74" gid="470" x="12" y="326" width="27" height="27"/>
  <object id="75" gid="470" x="594" y="540" width="27" height="27"/>
  <object id="76" gid="471" x="609" y="224" width="14" height="14"/>
  <object id="77" gid="470" x="227" y="106" width="27" height="27"/>
  <object id="78" gid="450" x="410" y="139" width="14" height="30"/>
  <object id="79" gid="459" x="72" y="138" width="24" height="21"/>
  <object id="80" gid="458" x="304" y="297" width="16" height="14"/>
  <object id="82" gid="465" x="49" y="289" width="16" height="20"/>
  <object id="83" gid="454" x="494" y="167" width="24" height="29"/>
  <object id="84" gid="455" x="487" y="178" width="16" height="21"/>
  <object id="85" gid="454" x="281" y="462" width="24" height="29"/>
  <object id="86" gid="458" x="292" y="473" width="16" height="14"/>
  <object id="87" gid="451" x="277" y="523" width="14" height="16"/>
  <object id="88" gid="450" x="227" y="495" width="14" height="30"/>
  <object id="89" gid="452" x="246" y="203" width="44" height="42"/>
  <object id="90" gid="457" x="306" y="258" width="15" height="11"/>
  <object id="91" gid="457" x="46" y="330" width="15" height="11"/>
  <object id="92" gid="457" x="597" y="203" width="15" height="11"/>
  <object id="93" gid="457" x="513" y="635" width="15" height="11"/>
  <object id="94" gid="457" x="428" y="501" width="15" height="11"/>
  <object id="95" gid="457" x="146" y="617" width="15" height="11"/>
  <object id="96" gid="464" x="451" y="161" width="29" height="32"/>
  <object id="99" gid="461" x="558" y="492" width="24" height="59"/>
  <object id="100" gid="458" x="276" y="410" width="16" height="14"/>
  <object id="101" gid="464" x="183" y="75" width="29" height="32"/>
  <object id="102" gid="465" x="167" y="58" width="16" height="20"/>
  <object id="103" gid="475" x="135" y="60" width="28" height="28"/>
  <object id="104" gid="475" x="328" y="322" width="28" height="28"/>
  <object id="105" gid="475" x="452" y="510" width="28" height="28"/>
  <object id="106" gid="473" x="192" y="300" width="40" height="29"/>
  <object id="107" gid="473" x="84" y="476" width="40" height="29"/>
  <object id="108" gid="473" x="191" y="128" width="40" height="29"/>
  <object id="109" gid="480" x="372" y="274" width="64" height="63"/>
  <object id="110" gid="470" x="408" y="289" width="27" height="27"/>
  <object id="111" gid="472" x="386" y="491" width="9" height="12"/>
  <object id="112" gid="472" x="83" y="77" width="9" height="12"/>
  <object id="113" gid="472" x="599" y="182" width="9" height="12"/>
  <object id="114" gid="470" x="400" y="27" width="27" height="27"/>
  <object id="115" gid="471" x="627" y="33" width="14" height="14"/>
  <object id="116" gid="469" x="106" y="93" width="15" height="30"/>
  <object id="117" gid="457" x="168" y="97" width="15" height="11"/>
  <object id="118" gid="477" x="87" y="121" width="14" height="14"/>
  <object id="119" gid="477" x="274" y="453" width="14" height="14"/>
  <object id="120" gid="474" x="394" y="489" width="48" height="16"/>
  <object id="121" gid="479" x="29" y="485" width="12" height="9"/>
  <object id="123" gid="478" x="181" y="280" width="15" height="10"/>
  <object id="124" gid="479" x="503" y="172" width="12" height="9"/>
  <object id="125" gid="479" x="570" y="207" width="12" height="9"/>
  <object id="126" gid="478" x="345" y="156" width="15" height="10"/>
  <object id="127" gid="478" x="106" y="331" width="15" height="10"/>
  <object id="129" gid="476" x="583" y="214" width="16" height="28"/>
  <object id="130" gid="476" x="360" y="11" width="16" height="28"/>
  <object id="131" gid="476" x="21" y="21" width="16" height="28"/>
  <object id="133" gid="475" x="135" y="580" width="28" height="28"/>
  <object id="134" gid="476" x="268" y="427" width="16" height="28"/>
  <object id="135" gid="476" x="578" y="350" width="16" height="28"/>
  <object id="136" gid="476" x="511" y="349" width="16" height="28"/>
  <object id="137" gid="5752" x="256" y="496" width="16" height="16"/>
  <object id="138" gid="5753" x="272" y="496" width="16" height="16"/>
  <object id="139" gid="5736" x="256" y="480" width="16" height="16"/>
  <object id="140" gid="5737" x="272" y="480" width="16" height="16"/>
  <object id="141" gid="456" x="494.571" y="299.224" width="46" height="62"/>
  <object id="142" gid="456" x="97.75" y="414" width="46" height="62"/>
  <object id="143" gid="456" x="224.5" y="122.25" width="46" height="62"/>
 </objectgroup>
 <objectgroup id="15" name="Collisions">
  <object id="146" x="17.6255" y="389.718" width="68.5435" height="6.52795"/>
  <object id="148" x="160.588" y="369.482" width="28.723" height="20.8894"/>
  <object id="149" x="147.532" y="360.343" width="15.6671" height="12.4031"/>
  <object id="150" x="150.143" y="361.648" width="39.8205" height="28.0702"/>
  <object id="151" x="178.213" y="325.092"/>
  <object id="152" x="65.2795" y="257.854" width="112.933" height="67.2379"/>
  <object id="153" x="48.9596" y="265.035" width="26.7646" height="22.8478"/>
  <object id="154" x="7.83354" y="299.633" width="32.6397" height="25.459"/>
  <object id="155" x="407.997" y="260.465" width="24.8062" height="23.5006"/>
  <object id="156" x="458.262" y="285.271"/>
  <object id="157" x="392.33" y="253.284" width="22.195" height="15.6671"/>
  <object id="158" x="81.5993" y="432.803" width="120.767" height="27.4174"/>
  <object id="159" x="52.2236" y="453.04" width="29.3758" height="11.7503"/>
  <object id="160" x="18.931" y="468.054" width="43.7373" height="9.79192"/>
  <object id="161" x="200.408" y="421.705" width="73.113" height="23.5006"/>
  <object id="162" x="262.424" y="376.663" width="9.13913" height="48.9596"/>
  <object id="163" x="266.34" y="372.746" width="33.2925" height="5.22236"/>
  <object id="164" x="296.369" y="360.343" width="5.22236" height="17.6255"/>
  <object id="165" x="296.369" y="356.426" width="35.9037" height="5.87515"/>
  <object id="166" x="327.703" y="340.106" width="15.0143" height="9.13913"/>
  <object id="167" x="327.05" y="339.453" width="4.56956" height="20.8894"/>
  <object id="168" x="307.466" y="364.912" width="26.7646" height="28.723"/>
  <object id="169" x="268.951" y="378.621" width="28.723" height="18.2783"/>
  <object id="170" x="274.827" y="396.899" width="16.9727" height="9.79192"/>
  <object id="171" x="304.202" y="438.025" width="9.13913" height="54.182"/>
  <object id="172" x="281.355" y="435.414" width="22.8478" height="22.195"/>
  <object id="173" x="255.243" y="477.193" width="31.9869" height="15.6671"/>
  <object id="174" x="255.896" y="533.986" width="28.723" height="20.2366"/>
  <object id="175" x="43.0845" y="583.599" width="23.5006" height="21.5422"/>
  <object id="176" x="308.772" y="483.068" width="71.8074" height="9.79192"/>
  <object id="177" x="376.01" y="470.012" width="79.641" height="10.4447"/>
  <object id="178" x="373.399" y="470.012" width="7.18074" height="23.5006"/>
  <object id="179" x="447.817" y="473.929" width="9.13913" height="20.2366"/>
  <object id="180" x="450.428" y="483.068" width="35.2509" height="10.4447"/>
  <object id="181" x="478.499" y="483.068" width="7.18074" height="27.4174"/>
  <object id="182" x="484.374" y="499.388" width="24.1534" height="9.79192"/>
  <object id="183" x="561.404" y="501.346" width="28.0702" height="7.18074"/>
  <object id="184" x="592.738" y="513.097" width="28.723" height="30.6814"/>
  <object id="185" x="414.525" y="329.009" width="75.7242" height="93.3497"/>
  <object id="186" x="345.981" y="313.341" width="144.92" height="75.7242"/>
  <object id="187" x="503.305" y="310.73" width="21.5422" height="24.1534"/>
  <object id="188" x="486.985" y="325.092" width="22.8478" height="20.2366"/>
  <object id="189" x="513.097" y="125.337" width="75.0714" height="71.1546"/>
  <object id="191" x="279.396" y="124.031" width="129.906" height="25.459"/>
  <object id="192" x="342.064" y="75.7242" width="67.2379" height="48.3068"/>
  <object id="193" x="281.355" y="45.6956" width="125.989" height="53.5292"/>
  <object id="194" x="190.616" y="272.868" width="39.1677" height="26.7646"/>
  <object id="195" x="183.435" y="261.771" width="15.6671" height="11.7503"/>
  <object id="196" x="293.105" y="274.827" width="35.9037" height="11.7503"/>
  <object id="197" x="347.287" y="295.063" width="14.3615" height="17.6255"/>
  <object id="198" x="366.218" y="295.063"/>
  <object id="199" x="322.481" y="295.716" width="39.1677" height="8.48633"/>
  <object id="200" x="322.481" y="280.049" width="7.83354" height="24.1534"/>
  <object id="201" x="248.715" y="188.658" width="5.22236" height="10.4447"/>
  <object id="202" x="280.049" y="188.005" width="6.52795" height="11.7503"/>
  <object id="203" x="247.409" y="186.699" width="40.4733" height="7.83354"/>
  <object id="206" x="171.032" y="399.51" width="17.6255" height="15.0143"/>
  <object id="207" x="147.532" y="395.594" width="13.0559" height="16.3199"/>
  <object id="208" x="117.503" y="392.33" width="6.52795" height="19.5838"/>
  <object id="209" x="80.2938" y="396.246" width="6.52795" height="45.6956"/>
  <object id="210" x="502.652" y="477.846" width="7.18074" height="13.0559"/>
  <object id="211" x="564.015" y="477.846" width="10.4447" height="10.4447"/>
  <object id="212" x="69.1962" y="481.763" width="133.823" height="5.22236"/>
  <object id="213" x="341.412" y="530.722" width="119.461" height="6.52795"/>
  <object id="214" x="249.368" y="560.751" width="73.113" height="9.13913"/>
  <object id="215" x="456.304" y="533.986" width="3.91677" height="13.7087"/>
  <object id="216" x="456.304" y="548.348" width="19.5838" height="3.26397"/>
  <object id="217" x="470.665" y="551.612" width="5.22236" height="43.0845"/>
  <object id="218" x="470.012" y="594.043" width="24.1534" height="6.52795"/>
  <object id="219" x="486.985" y="600.571" width="7.18074" height="26.7646"/>
  <object id="220" x="486.985" y="627.336" width="20.8894" height="3.26397"/>
  <object id="221" x="503.958" y="630.6" width="3.91677" height="10.4447"/>
  <object id="222" x="338.8" y="530.069" width="3.26397" height="18.2783"/>
  <object id="223" x="321.828" y="544.431" width="16.9727" height="3.91677"/>
  <object id="224" x="321.828" y="544.431" width="4.56956" height="24.8062"/>
  <object id="225" x="246.756" y="529.417" width="5.87515" height="39.8205"/>
  <object id="226" x="234.353" y="529.417" width="17.6255" height="6.52795"/>
  <object id="227" x="234.353" y="511.791" width="3.26397" height="24.1534"/>
  <object id="228" x="219.992" y="511.791" width="17.6255" height="5.87515"/>
  <object id="229" x="216.075" y="495.471" width="3.91677" height="22.195"/>
  <object id="230" x="203.672" y="495.471" width="12.4031" height="5.22236"/>
  <object id="231" x="201.061" y="482.415" width="2.61118" height="18.2783"/>
  <object id="232" x="126.642" y="369.482" width="13.7087" height="30.6814"/>
  <object id="233" x="452.387" y="131.212" width="26.1118" height="27.4174"/>
  <object id="234" x="486.985" y="158.629" width="14.3615" height="18.931"/>
  <object id="235" x="494.166" y="137.74" width="18.931" height="23.5006"/>
  <object id="236" x="584.251" y="310.078" width="22.195" height="22.195"/>
  <object id="237" x="579.682" y="320.522" width="16.3199" height="27.4174"/>
  <object id="238" x="64.6267" y="481.763" width="5.87515" height="18.931"/>
  <object id="239" x="49.6124" y="498.082" width="15.0143" height="2.61118"/>
  <object id="240" x="49.6124" y="498.082" width="3.91677" height="19.5838"/>
  <object id="241" x="33.9453" y="512.444" width="19.5838" height="5.22236"/>
  <object id="242" x="33.9453" y="512.444" width="5.87515" height="20.2366"/>
  <object id="243" x="-0.652795" y="526.153" width="40.4733" height="6.52795"/>
  <object id="244" x="64.6267" y="65.2795" width="7.18074" height="45.6956"/>
  <object id="245" x="64.6267" y="99.8776" width="58.0987" height="11.0975"/>
  <object id="246" x="162.546" y="99.8776" width="56.7931" height="11.7503"/>
  <object id="247" x="210.853" y="58.0987" width="11.0975" height="52.8764"/>
  <object id="248" x="184.088" y="39.8205" width="24.8062" height="31.9869"/>
  <object id="249" x="103.142" y="75.7242" width="18.2783" height="13.0559"/>
  <object id="250" x="78.9882" y="65.2795" width="13.0559" height="7.83354"/>
  <object id="251" x="71.1546" y="26.1118" width="37.2093" height="32.6397"/>
  <object id="252" x="103.142" y="28.0702" width="46.3484" height="15.6671"/>
  <object id="253" x="137.087" y="41.1261" width="45.0428" height="13.0559"/>
 </objectgroup>
 <objectgroup id="15" name="NPCs">
  <object id="144" name="Abuelo" x="340.837" y="413.774" width="16" height="16">
   <properties>
    <property name="dialogNodeId" value="npc_abuelo_hola"/>
    <property name="movement" value="patrol_h"/>
    <property name="npcId" value="abuelo"/>
    <property name="patrolDist" value="3"/>
    <property name="speed" value="40"/>
    <property name="spriteIdle" value="sprites/npc/abuelo_idle.png"/>
    <property name="spriteWalk" value="sprites/npc/abuelo_walk.png"/>
   </properties>
  </object>
  <object id="145" name="Padre" x="294.541" y="320.653" width="16" height="16">
   <properties>
    <property name="dialogNodeId" value="npc_padre_hola"/>
    <property name="movement" value="static"/>
    <property name="npcId" value="padre"/>
    <property name="spriteIdle" value="sprites/npc/hombre_idle.png"/>
    <property name="spriteWalk" value="sprites/npc/hombre_walk.png"/>
   </properties>
  </object>
  <object id="146" name="Madre" x="462.016" y="217.805" width="16" height="16">
   <properties>
    <property name="dialogNodeId" value="npc_madre_hola"/>
    <property name="movement" value="wander"/>
    <property name="npcId" value="madre"/>
    <property name="speed" value="30"/>
    <property name="spriteIdle" value="sprites/npc/mujer_c_idle.png"/>
    <property name="spriteWalk" value="sprites/npc/mujer_c_walk.png"/>
   </properties>
  </object>
 </objectgroup>
</map>
